X:144091
T:Rowan Tree (incl Brass)
H:
B:Scots Guards II
C:
O:Kevin Fraser
Z:Kevin Fraser
Q:1/4=90
K:Amix
M:none
M:4/4
L:1/8
R:March
I:linebreak $
U:V = !accent!
V:M name="Melody" gstem=up stem=down  transpose=1
V:H name="Harmony" gstem=up stem=down transpose=1
V:C name="C-Harmony" gstem=up stem=down transpose=1
V:S gstem=up stem=down dyn=up stafflines=1 clef=perc middle=G name="Snare" sname="Snare"" sname="Snare"
V:B clef=none name="Bass" gstem=up stem=down dyn=up  
V:T clef=none name="Tenor" gstem=up stem=down dyn=up 
V:F transpose=0` name="Flute" sname="Flute" 
V:TT clef=treble octave=-2 transpose=3 name="Trombone" sname="Trombone" 
V:Tb clef=bass octave=-2 transpose=-11 name="Tuba" sname="Tuba" 
V:Tr clef=treble transpose=1 name="Trumpet" sname="Trumpet" 
%%MIDI program 1
%%MIDI vol 100
%%MIDI gracedivider 100
V:M
  {g}AB||         {g}c3{GdG}c {gcd}c2{e}B2 | {g}ce3 {A}e2 {ag}a2  | {fg}f3e {gfg}f2a2   | {fg}f3e {A}e2 {g}AB | $
V:M
        |         {g}c3{GdG}c {gcd}c2{e}B2 | {g}ce3 {gfg}f3e      | {gef}ec3 {gBd}B3c   | {g}A4 {GAG}A2       || $
V:M
  {g}e2||         {A}e2 a2 {g}a3g          | {f}g2 f2 {gfg}f2 a2  | {ef}e3f {gfg}fe {gde}dc |{gcd}c2-cd/2c/2 {gBd}B2{g}AB | $
V:M
        |         {g}c3{GdG}c {gcd}c2{e}B2 | {g}ce3 {gfg}f3e      | {gef}ec3 {gBd}B3c   | {g}A4 {GAG}A2       || $
V:TT
z2 || a8 | b4 d'2 b2 | c'4 d'2 c'2 | c'2 a2 b4 | $
V:F
z2 || [g4d4] [g4d4] | [g4d4] [g4d4] |[g4c4] [g4c4] |[g4c4] [g4d4] | $
V:TT
| g8 | b4 c'4 | d'4 d'2 c'2 | b2 a2 b4 || $
V:F
| [g4d4] [g4d4] | [g4d4] [g4d4] |[g4d4] [g4d4] |[g4d4]z2 d2 || $
V:TT
 g4 b4 | c'4 a2 c'2| g4 b4 |d4 d2 a2 | $
V:Tb
x2 || A4 A4 | c4 c4 | d4 d4 | d4 c4 | B4 B4 | X | X | X | X | X | X | X | X | X | X | X | X |]
V:F
| d2 g2 g3f | f2 e2 e2 g2 | d3e ed cB |B2-Bc/2B/2 A2GA |
V:F
| B3B B2A2 | Bd3 e3d | dB3 A3B | G4 G2 |] $
V:TT
g8 | d2e2f2g2 | b4 c'4 | g4 g4 |] $
V:Tr
% K:Emix
AB|| c3c c2B2 | ce3 e2 a2 | f3e f2a2 | f3e e2 AB | $
V:Tr
| c3c c2B2 | ce3 f3e | ec3 B3c | A4 A2 | $
V:Tr
e2|| e2 a2 a3g | g2 f2 f2 a2 | e3f fe dc |c2-cd/2c/2 B2AB | $
V:Tr
| c3c c2B2 | ce3 f3e | ec3 B3c | A4 A2 |] $
V:H
AB || A2-AA A2G2 | Ac-c2 c2 f2 | d2-dc d2 f2 | d2-dc c2 AB | $
V:H
   | A2-AA A2G2 | eABc d2-dc | cA-A2 d2-de | c4 c2  || $
V:H
 cc|| c2-cf f2-fe | e2 d2 d2 f2 | c2-cd dc BA  A2-AB/A/ G2 AB | $
V:H
   | A2-AA A2G2 | cABc d2-dc | cA-A2 d2-de | c4 c2 || $


